X:96
T:Monaghan
Z: id:dc-jig-78
M:6/8
L:1/8
K:E Dorian
BGE E3|BGE FGA|BGE BGE|AFD DFA|!
BGE E3|BGE FGA|dcB ABG|FDF AGF:|!
EGB efg|fed edB|EGB EFG|F3 AGF|!
EGB efg|fed edc|dcB ABG|FDF AGF:|!
g2e ede|geg bge|g2e ede|fef dfa|!
g2e ede|geg bge|fed ABG|FDF AGF:|!
EGB eBG|BGE FGF|EGB eBG|FDF AGF|!
EGB GBe|Beg ebg|fed ABG|FDF AGF:|!

